X: 20853
T: Johnstown, The
R: reel
M: 4/4
K: Dmajor
BF (3FFF AFEF|BF (3FFF (3Bcd (3efg|f2 (3def ecde|fd (3Bcd cAF2|
BF (3FFF AFEF|BF (3FFF (3Bcd (3efg|f2 (3def ecde|fdcd B3 A|
BF (3FFF AFEF|BF (3FFF (3Bcd (3efg|f2 (3def ecde|fd (3Bcd cAF2|
BF (3FFF AFEF|BF (3FFF (3Bcd (3efg|f2 (3def ecde|fdcd B3 F|
|:E2 EF Gdcd|D2 FD ADFD|E2 EF Ggfg|efde (3Bcd AF|
E2 EF Gdcd|D2 FD ADFD|E2 EF Ggfg|efdB e3 F:|

